!!!OTL: It Came Upon the Midnight Clear
!!!COM: Willis, Richard
!!!LYR: Sears, Edmund
!!!ODT: 1850
!!!YOR: The Christmas Fake Book, p. 54
!!!YOY: 1990
!!!AST: Christmas song
!!!YEC: Brian Luke, 2001
**kern	**harm
*k[b-e-]	*k[b-e-]
*M6/8	*M6/8
*B-:	*B-:
*>A	*>A
8f	.
=1	=1
4dd	I
8a	I+
8cc	IVc
8b-	.
8g	.
=2	=2
4f	I
8g	IV
4f	I
8f	.
=3	=3
8g	IV
8a	.
8b-	.
8b-	V7/V
8cc	.
8dd	.
=4	=4
[4.cc	V;
4cc]	V7b
*>A'	*>A'
8f	.
=5	=5
4dd	I
8a	I+
8cc	IVc
8b-	.
8g	.
=6	=6
4f	I
8g	IV
4f	I
8f	.
=7	=7
4g	IV
8g	ii
8a	V7
8g	.
8f	.
=8	=8
[4.b-	I;
4b-]	.
*>B	*>B
8dd	.
=9	=9
4dd	V7/vi
8d	.
8d	.
8e	.
8f#	.
=10	=10
4g	vi
8a	V7/vi
4b-	vi
8dd	.
=11	=11
8cc	Vc
8b-	.
8a	.
8g	V7/V
8a	.
8g	.
=12	=12
[4.f	V;
4f]	V7
*>A'	*>A'
8f	.
=13	=13
4dd	I
8a	I+
8cc	IVc
8b-	.
8g	.
=14	=14
4f	I
8g	IV
4f	I
8f	.
=15	=15
4g	IV
8g	ii
8a	V
8g	.
8f	V7
=16	=16
2.b-	I;
*-	*-
